X:1
T:Plaisir nay plus
T:Plaisir nay plus
T:Christiaan  Hollander
T:Source: Le XIième livre de Chansons---Anvers---T.Susato---1549. Editor: André Vierendeels (09/07/13).
C:Christiaan  Hollander
%%score [ 1 2 3 4 ]
L:1/8
Q:1/4=90
M:4/4
K:C
V:1 treble nm="Superius" snm="S"
V:2 treble nm="Altus" snm="A"
V:3 treble-8 nm="Tenor" snm="T"
V:4 bass nm="Bassus" snm="B"
V:1
 z8 | z8 | A8 | G4 F4 | E6 E2 | FG AB c2 B2- | BA A4 GF | G2 G2 c2 c2 | B2 AG A2 A2 | G3 A Bc B2- | %10
w: ||Plai-|sir n'ay|plus, plai-|sir _ _ _ _ _|_ _ _ _ _|* n'ay plus, mais|vyz _ _ _ en|des- * * * *|
 B2 A2 B2 G2- | GF ED EDEF | GA B3 A A2- |"^#" A2 G2 A4 | z2 A2 A2 c2 | B2 A4 G2 | A4 z2 A2 | %17
w: * con- fort, en|_ _ _ _ _ _ _ _|* * des- * *|* con- fort,|for- tu- ne|m'as _ re-|mis en|
 G2 F2 E2 D2 | E4 z2 c2 | B2 A2 G2 c2 | BA A4 G2 | A8 | z2 F2 E2 D2 | A4 z2 A2- | A2 G2 FE A2 | %25
w: grant _ _ dou-|leur en|grant _ _ _|_ _ _ dou-|leur|l'heur que j'a-|vais, l'heur|_ que _ _ _|
 G2 F2 E2 c2 | B2 A4 G2 | A2 c4 B2 | AG AF GF ED | C2 c4 B2- | BA A4 G2 | A8- | A8- | A8 | z4 A4- | %35
w: _ j'a- vais, l'heur|que _ j'a-|vais est tour-||né en _|_ _ _ mal-|heur,|_||mal-|
 A4 G4 | F4 E2 E2 | F2 E2 E2 D2 | E2 c2 B2 A2 | GF GA B2 c2 | B2 A4 G2 | A4 z4 | z2 c2 B2 A2 | %43
w: * heu-|reux est qui|n'a au- cun con-|fort, qui n'a au-|cun- * * * * *|* * con-|fort,|mal- heu- reux|
 G2 E2 EF GA | B2 c2 BA A2- |"^#" A2 G2 A4- | A8 |] %47
w: est qui n'a _ _ _|_ au- cun _ _|_ con- fort.|_|
V:2
 F8 | E4 E2 DC | D4 E4- | E4 z4 | z4 A4- | A4 G4 | F4 E4- | E4 z2 A,2 | E3 E D2 CB, | C2 C2 B,4 | %10
w: Plai-|sir n'ay _ _|_ plus,|_|plai-|* sir|n'ay plus,|_ mais|vyz en des- * *|* con- fort,|
 z2 A,2 E3 E | D2 CB, C2 C2 | B,2 F4 D2 | E4 z2 C2 | F2 F2 E2 E2 | F3 E DC D2 | E2 F2 E2 D2 | %17
w: mias vyz en|des- * * * con-|fort, des- con-|fort, for-|tu- ne m'a re-|mis _ _ _ _|en grant _ _|
 E2 C2 C2 A,2 | C3 D E2 F2 | F E2 D E2 G2 | GF ED E3 D | C2 F2 E4 | F4 z4 | z2 C2 B,2 A,2 | %24
w: dou- leur, en grant|_ _ _ _|* * * * dou-|leur, _ _ _ _ en|grant _ dou-|leur,|l'heur que j'a-|
 E3 D CB, C2- | CA, D4 C2 | D4 E4 | z2 E2 G2 DE | F2 D2 E2 E2- | EDEF GF DE | F2 D2 E3 D | %31
w: vais, _ _ _ _|_ _ _ est|tour- né,|l'heur que j'a- *|* vais est tour-||né en mal- *|
 C2 F3 E/D/ E2 | F4 F4- | F4 E4 | E2 DC D4 | E8 | z8 | A8 | G4 F4 | E2 G2 G2 E2 | F2 D2 E4 | %41
w: |heur, mal-|* heu-|reux _ _ _|est,||mal-|heu- reux|est qui n'a au-|cun con- fort,|
 z2 F2 E2 D2 | E2 G2 G2 E2 | E2 G2 G3 F/E/ | D2 G2 F2 F2 | E8 | E8 |] %47
w: mal- heu- reux|est qui n'a au-|cun con- fort, _ _|_ au- cun con-|fort.|_|
V:3
 d8 | c4 B4 | A3 B c2 BA | B4 A2 d2- | d2 cB c4 | d4 z2 G2 | d3 d c2 BA | B2 B2 A4 | z4 z2 A2 | %9
w: Plai-|sir n'ay|plus, _ _ _ _|_ plai- sir|_ _ _ n'ay|plus, mais|vyz en _ _ _|des- con- fort,|mais|
 e3 e d2 cB | c2 c2 B4- | B4 z2 A2 | d3 d c2 BA | B2 B2 A4 | z2 d2 d2 c2 | d3 c B2 B2 | %16
w: vyz en des- * *|* con- fort,|_ mais|vyz en des- * *|* con- fort,|for- tu- ne|m'a _ _ mis|
 A2 c2 B2 A2 | B2 A2 G2 F2 | E4 z4 | z4 e4 | d2 c2 B4 |"^#" A2 d4 c2 | d2 d2 c2 B2 | A4 z2 d2 | %24
w: en grant _ _|_ _ _ dou-|leur,|en|grant _ _|_ _ dou-|leur, l'heur que j'a-|vais, l'heur|
 c2 B2 A4 | z8 | z2 d2 c2 B2 | c2 c2 GA Bc | d2 A2 B2 c2- | cB cB/A/ GA Bc | dc BA B4 | %31
w: que j'a- vais,||l'heur que j'a-|vais est tour- * * *|né en grant _|_ _ _ _ _ mal- * * *|* * * * heur,|
"^#" A2 d4 c2 | d4 d4- | d4 c4 | B4 A3 B | c2 BA B4 | A2 d2 d2 c2 | d2 c4 A2 | B2 e2 d3 c | %39
w: en grant mal-|heur, mal|_ _|heu- reux _|_ _ _ _|est, qui n'a au-|cun _ con-|fort, qui n'a au-|
 B2 e4 c2 | dc cB/A/ B4 | A2 c2 B2 A2 | G2 e2 d2 c2 | B2 c2 c2 c2 | B2 e2 d3 c | B4 A4- | A8 |] %47
w: cun _ _|_ _ _ _ _ con-|fort, mal- heu- reux|est qui n'a au-|cun con- fort, qui|n'a au- cun _|con- fort.|_|
V:4
 z4 A,4- |"^#" A,4 G,4 | F,4 E,4- | E,2 E,2 F,2 D,2 | A,6 A,2 | D,2 F,2 E,4 | D,4 E,4- | %7
w: Plai-|* sir|n'ay plus,|_ plai- sir n'ay|plus, plai-|sir n'ay _|_ plus,|
 E,2 E,2 A,3 A, | G,2 F,E, F,2 F,2 | E,2 C,2 G,4 | A,4 E,4 | z2 E,2 A,3 A, | G,2 F,E, F,2 F,2 | %13
w: _ mais vyz en|des- * * * con-|fort, en des-|con- fort,|maiq vyz en|des- * * * con-|
 E,4 z2 F,2 | F,2 D,2 A,2 A,2 | D,4 z4 | z2 A,2 G,2 F,2 | E,2 F,2 C,2 D,2 | A,,4 z2 A,2 | %19
w: fort, for-|tu- ne m'a re-|mis|en grant _|_ _ _ dou-|leur, en|
 G,2 F,2 E,2 C,2 | G,2 A,2 E,4 | F,2 D,2 A,4 | D,4 z4 | z2 A,2 G,2 F,2 | E,4 z2 F,2 | %25
w: grant _ _ _|_ _ _|* * dou-|leur,|l'heur que j'a-|vais, l'heur|
 E,2 D,2 A,2 A,2 | D,2 F,2 E,4 | z2 A,2 E,2 G,2 | D,2 F,2 E,D, C,B,, | A,,2 A,2 E,2 G,2 | %30
w: que j'a- vais, l'heur|qie j'a- vais,|l'heur que j'a-|vais est tour- * * *|né en mal- *|
 D,2 F,2 E,4 | F,2 D,2 A,4 | D,4 z4 | A,8 | G,4 F,4 |"^#" E,6 E,2 | F,2 D,2 A,2 A,2 | %37
w: * * heur,|en grant mal-|heur,|mal-|heu- reux|est qui|n'a au- cun con-|
 D,2 A,3 G, F,2 | E,2 C,2 D,2 D,2 | E,D, E,F, G,2 A,2 | D,2 F,2 E,4 | z2 A,2 G,2 F,2 | %42
w: fort, mal- heu- reux|est qui n'a au-|cun _ _ _ _ _|_ con- fort,|mal- heu- reux|
 E,2 C,2 G,2 A,2 | E,2 C,2 C,D, E,F, | G,2 C,2 D,2 D,2 | E,4 A,,4- | A,,8 |] %47
w: est qui n'a au-|cun con- fort, _ _ _|_ au- cun con-|* fort.|_|

